material/.icons/material/fast-forward-10.svg

<svg xmlns="http://www.w3.org/2000/svg" viewBox="0 0 24 24"><path d="M10 12v10H8v-8H6v-2h4m8 2v6c0 1.11-.89 2-2 2h-2a2 2 0 01-2-2v-6a2 2 0 012-2h2a2 2 0 012 2m-4 0v6h2v-6h-2M11.5 3c2.65 0 5.05 1 6.9 2.6L21 3v7h-7l2.62-2.62C15.23 6.22 13.46 5.5 11.5 5.5c-3.54 0-6.55 2.31-7.6 5.5l-2.37-.78C2.92 6.03 6.85 3 11.5 3z"/></svg>

<?xml version="1.0" encoding="UTF-8"?><!DOCTYPE svg PUBLIC "-//W3C//DTD SVG 1.1//EN" "http://www.w3.org/Graphics/SVG/1.1/DTD/svg11.dtd"><svg xmlns="http://www.w3.org/2000/svg" xmlns:xlink="http://www.w3.org/1999/xlink" version="1.1" id="mdi-fast-forward-10" width="24" height="24" viewBox="0 0 24 24"><path d="M10,12V22H8V14H6V12H10M18,14V20C18,21.11 17.11,22 16,22H14A2,2 0 0,1 12,20V14A2,2 0 0,1 14,12H16C17.11,12 18,12.9 18,14M14,14V20H16V14H14M11.5,3C14.15,3 16.55,4 18.4,5.6L21,3V10H14L16.62,7.38C15.23,6.22 13.46,5.5 11.5,5.5C7.96,5.5 4.95,7.81 3.9,11L1.53,10.22C2.92,6.03 6.85,3 11.5,3Z" /></svg>
